lib/brands/icons/npm.svg

<svg xmlns="http://www.w3.org/2000/svg" fill="none" aria-hidden="true" viewBox="0 0 48 48"><path fill="#C12127" d="M6 42V6h36v36H6Z"/><path fill="#fff" d="M12.75 12.75h22.5v22.5h-4.5v-18H24v18H12.75v-22.5Z"/></svg>

<svg xmlns="http://www.w3.org/2000/svg" fill="none" aria-hidden="true" viewBox="0 0 48 48"><g id="npm-Icon"><g id="Group"><path id="Vector" fill="#C12127" d="M6 42V6H42V42H6Z"/><path id="Vector_2" fill="white" d="M12.75 12.75H35.25V35.25H30.75V17.25H24V35.25H12.75V12.75Z"/></g></g></svg>
